cfgov/unprocessed/apps/teachers-digital-platform/img/icon-three.svg

<svg height="20" viewBox="0 0 20 20" width="20" xmlns="http://www.w3.org/2000/svg"><path d="m134.0003 1841.20038c0-.22557-.036271-.43812-.108812-.63621-.072541-.19953-.174378-.38028-.304115-.54077-.131133-.16339-.287375-.3022-.468728-.41787-.181354-.11712-.382237-.20099-.599861-.25449v-.03325c.378052-.10556.689142-.31088.931876-.61597.242735-.30509.365497-.68103.365497-1.12492 0-.38462-.078122-.71863-.234364-1.00058-.157638-.2834-.362707-.51909-.616601-.70706-.253895-.18797-.542665-.32822-.864915-.41787-.323646-.09109-.655662-.13592-.997443-.13592-.318065 0-.630551.04338-.936061.13014-.30551.08675-.58591.21399-.84399.38461-.258079.16773-.479888.37883-.669612.63042-.188328.25159-.33062.54801-.425482.88635l1.700535.40775c.057196-.27183.181353-.48727.375261-.65066.192514-.1605.418508-.24147.679377-.24147.25529 0 .481284.07519.676587.22701.195303.15038.292955.3716.292955.6579 0 .19809-.037665.35569-.114392.47715-.075331.12146-.177168.21833-.304115.29063-.126947.07085-.270635.12001-.431063.14748-.159032.02603-.326435.03904-.500813.03904h-.5329v1.37797h.489654c.188328 0 .378051.0159.56638.05061.188328.03325.358521.08964.506394.16772.149267.08097.269239.18797.359916.32244.090676.13592.135317.30509.135317.50752 0 .18942-.034875.34702-.103232.47426-.068356.12869-.156242.23135-.260869.31088-.106022.07808-.224599.13736-.359916.17495-.133923.03904-.26645.0564-.397582.0564-.347361 0-.634737-.09977-.86073-.29931-.224599-.19809-.372472-.43089-.445013-.69404l-1.69914.46269c.100442.37594.253894.69838.456173.96588.203674.26749.442223.48438.714252.655.27203.16773.573356.29497.903976.37739.329226.08386.669612.12435 1.018368.12435.354336 0 .704487-.05061 1.050454-.15183.344571-.10266.655661-.25592.930481-.46269.276215-.20677.499419-.46993.669612-.78947.170192-.31955.256684-.69694.256684-1.13216m7-2.2007c0 5.52376-4.476248 10-10 10-5.522254 0-10-4.47624-10-10 0-5.52225 4.477746-10 10-10 5.523752 0 10 4.47775 10 10" fill="#1e9642" fill-rule="evenodd" transform="translate(-121 -1829)"/></svg>

<?xml version="1.0" encoding="UTF-8"?>
<svg width="20px" height="20px" viewBox="0 0 20 20" version="1.1" xmlns="http://www.w3.org/2000/svg" xmlns:xlink="http://www.w3.org/1999/xlink">
    <title>Path</title>
    <g id="Designs---r3.0" stroke="none" stroke-width="1" fill="none" fill-rule="evenodd">
        <g id="Design:-Results-page---3.0" transform="translate(-121.000000, -1829.000000)" fill="#1E9642">
            <path d="M134.0003,1841.20038 C134.0003,1840.97481 133.964029,1840.76226 133.891488,1840.56417 C133.818947,1840.36464 133.71711,1840.18389 133.587373,1840.0234 C133.45624,1839.86001 133.299998,1839.7212 133.118645,1839.60553 C132.937291,1839.48841 132.736408,1839.40454 132.518784,1839.35104 L132.518784,1839.31779 C132.896836,1839.21223 133.207926,1839.00691 133.45066,1838.70182 C133.693395,1838.39673 133.816157,1838.02079 133.816157,1837.5769 C133.816157,1837.19228 133.738035,1836.85827 133.581793,1836.57632 C133.424155,1836.29292 133.219086,1836.05723 132.965192,1835.86926 C132.711297,1835.68129 132.422527,1835.54104 132.100277,1835.45139 C131.776631,1835.3603 131.444615,1835.31547 131.102834,1835.31547 C130.784769,1835.31547 130.472283,1835.35885 130.166773,1835.44561 C129.861263,1835.53236 129.580863,1835.6596 129.322783,1835.83022 C129.064704,1835.99795 128.842895,1836.20905 128.653171,1836.46064 C128.464843,1836.71223 128.322551,1837.00865 128.227689,1837.34699 L129.928224,1837.75474 C129.98542,1837.48291 130.109577,1837.26747 130.303485,1837.10408 C130.495999,1836.94358 130.721993,1836.86261 130.982862,1836.86261 C131.238152,1836.86261 131.464146,1836.9378 131.659449,1837.08962 C131.854752,1837.24 131.952404,1837.46122 131.952404,1837.74752 C131.952404,1837.94561 131.914739,1838.10321 131.838012,1838.22467 C131.762681,1838.34613 131.660844,1838.443 131.533897,1838.5153 C131.40695,1838.58615 131.263262,1838.63531 131.102834,1838.66278 C130.943802,1838.68881 130.776399,1838.70182 130.602021,1838.70182 L130.069121,1838.70182 L130.069121,1840.07979 L130.558775,1840.07979 C130.747103,1840.07979 130.936826,1840.09569 131.125155,1840.1304 C131.313483,1840.16365 131.483676,1840.22004 131.631549,1840.29812 C131.780816,1840.37909 131.900788,1840.48609 131.991465,1840.62056 C132.082141,1840.75648 132.126782,1840.92565 132.126782,1841.12808 C132.126782,1841.3175 132.091907,1841.4751 132.02355,1841.60234 C131.955194,1841.73103 131.867308,1841.83369 131.762681,1841.91322 C131.656659,1841.9913 131.538082,1842.05058 131.402765,1842.08817 C131.268842,1842.12721 131.136315,1842.14457 131.005183,1842.14457 C130.657822,1842.14457 130.370446,1842.0448 130.144453,1841.84526 C129.919854,1841.64717 129.771981,1841.41437 129.69944,1841.15122 L128.0003,1841.61391 C128.100742,1841.98985 128.254194,1842.31229 128.456473,1842.57979 C128.660147,1842.84728 128.898696,1843.06417 129.170725,1843.23479 C129.442755,1843.40252 129.744081,1843.52976 130.074701,1843.61218 C130.403927,1843.69604 130.744313,1843.73653 131.093069,1843.73653 C131.447405,1843.73653 131.797556,1843.68592 132.143523,1843.5847 C132.488094,1843.48204 132.799184,1843.32878 133.074004,1843.12201 C133.350219,1842.91524 133.573423,1842.65208 133.743616,1842.33254 C133.913808,1842.01299 134.0003,1841.6356 134.0003,1841.20038 M141.0003,1838.99968 C141.0003,1844.52344 136.524052,1848.99968 131.0003,1848.99968 C125.478046,1848.99968 121.0003,1844.52344 121.0003,1838.99968 C121.0003,1833.47743 125.478046,1828.99968 131.0003,1828.99968 C136.524052,1828.99968 141.0003,1833.47743 141.0003,1838.99968" id="Fill-354"></path>
        </g>
    </g>
</svg>
